X:2175
T:GDNIGHT3-  Good night and God be with you.
O:england
S:Playford's 'Original Scotch Tunes', 1700
Q:1/4=80
L:1/4
M:C
K:Dmixolydian
e/d/|ccG3/2 G/|AAg3/2 f/2|e/c/ f/g/  e/f/g/e|add||\
c|d/c/d/e/ d (c/B/)|d/c/d/e/ d3/2 e/|\
g/c/ f/g/  f/g/g/e/|add|]
